X:13
T:Joan's Jig 
C:Terence "Cuz" Teahan
B:Terry "Cuz" Teahan "Sliabh Luachra on Parade" 1980
Z:Patrick Cavanagh
M:6/8
L:1/8
R:Jig
K:G
N:for Joan Dunne
DEG BGA | GBG GED | EAA GED | EGG GED | 
egd edB | edG GBd | gab age | dBG A3 :| 
| dBB gBB | dgg bgd | efg edB | AGE GED | 
dBB gBB | dgg bgd | efg edB | dBG A3 :|| 

